src/assets/duotone/CloudSunny.svg

<svg width="24" height="24" viewBox="0 0 24 24"  xmlns="http://www.w3.org/2000/svg">
<path opacity="0.4" d="M20.6098 10.83C19.8398 9.90996 18.8498 9.30996 17.6998 9.04996C17.4398 7.88996 16.9898 6.88996 16.3298 6.05996C16.3098 6.02996 16.2898 5.99996 16.2698 5.97996C14.0698 3.31996 10.4698 3.32996 8.03977 4.70996C5.95977 5.89996 4.18977 8.40996 5.11977 11.99C2.98977 12.51 2.00977 14.37 2.00977 16.05C2.00977 17.93 3.23977 20.04 5.97977 20.24H16.3198C16.3298 20.24 16.3498 20.24 16.3598 20.24C17.7798 20.24 19.1398 19.71 20.1898 18.75C22.6998 16.53 22.3698 12.91 20.6098 10.83Z" />
<path d="M21.76 8.74001C21.76 9.64001 21.44 10.5 20.86 11.16C20.79 11.05 20.7 10.94 20.61 10.83C19.85 9.92001 18.85 9.30001 17.7 9.05001C17.45 7.89001 16.99 6.90001 16.33 6.07001C16.32 6.04001 16.29 6.01001 16.27 5.99001C16.17 5.87001 16.06 5.76001 15.96 5.65001C16.57 5.23001 17.27 5.01001 18.03 5.01001C20.09 5.01001 21.76 6.68001 21.76 8.74001Z" />
</svg>

<?xml version="1.0" encoding="UTF-8"?>
<svg width="24" height="24" viewBox="0 0 24 24" xmlns="http://www.w3.org/2000/svg">
 <path d="m20.61 10.83c-0.77-0.92004-1.76-1.52-2.91-1.78-0.26-1.16-0.71-2.16-1.37-2.99-0.02-0.03-0.04-0.06-0.06-0.08-2.2-2.66-5.8-2.65-8.23-1.27-2.08 1.19-3.85 3.7-2.92 7.28-2.13 0.52-3.11 2.38-3.11 4.06 0 1.88 1.23 3.99 3.97 4.19h10.34 0.04c1.42 0 2.78-0.53 3.83-1.49 2.51-2.22 2.18-5.84 0.42-7.92z" opacity=".4"/>
 <path d="m21.76 8.74c0 0.9-0.32 1.76-0.9 2.42-0.07-0.11-0.16-0.22-0.25-0.33-0.76-0.90999-1.76-1.53-2.91-1.78-0.25-1.16-0.71-2.15-1.37-2.98-0.01-0.03-0.04-0.06-0.06-0.08-0.1-0.12-0.21-0.23-0.31-0.34 0.61-0.42 1.31-0.64 2.07-0.64 2.06 0 3.73 1.67 3.73 3.73z"/>
</svg>
